X: 964
T: Tennessee Wagoner
B: jims roots
M:4/4
L:1/8
R: reel
Q: 1/4=100
K:C
V:1 
ag |: "C"ec2c c2cB | cdef g2BA | "G"G2GA BAGF | GABc d2ag |
"C"ec2c c2cB | cdef g2ef | "G"gfga gfed |[1 "C"ec2c c2ag :|[2 "C"ec2c c4||
|: "C"C3,D E2G2 | cBcd cAGE | "G (A)"[G,4D] [G,4D] |"G" DEGA BAGE |
 "C"C3,D E2G2 | "(F)"cBcd edef | "G"gfga gfed | "C"ec2c c2c2 :|
% abcbook-tune_id 6298c297f24a5c09e9413011


% abcbook-boost 0
% abcbook-tablature 
% abcbook-transpose 
% abcbook-lastupdated 1654178456028
% abcbook-soundfonts 
% abcbook-repeats 1


